web/static/assets/images/sad.svg

<?xml version="1.0" encoding="UTF-8"?>
<svg width="182px" height="170px" viewBox="0 0 182 170" version="1.1" xmlns="http://www.w3.org/2000/svg" xmlns:xlink="http://www.w3.org/1999/xlink">
    <!-- Generator: Sketch 43.2 (39069) - http://www.bohemiancoding.com/sketch -->
    <title>Crying</title>
    <desc>Created with Sketch.</desc>
    <defs></defs>
    <g id="Page-1" stroke="none" stroke-width="1" fill="none" fill-rule="evenodd">
        <g id="Crying" fill-rule="nonzero">
            <circle id="Oval" fill="#F8E71C" cx="91" cy="85" r="85"></circle>
            <path d="M46.9161523,133.163944 C46.9161523,108.357694 66.963233,88.2472778 91.691358,88.2472778 C116.419483,88.2472778 136.466564,108.357694 136.466564,133.163944 L46.9161523,133.163944 Z" id="Shape" fill="#C03A2B"></path>
            <path d="M46.9161523,133.163944 C46.9161523,121.889861 66.963233,112.747278 91.691358,112.747278 C116.419483,112.747278 136.466564,121.889861 136.466564,133.163944" id="Shape" fill="#E64C3C"></path>
            <path d="M72.6903889,67.8306111 C70.4394172,67.8306111 68.6199156,66.0053611 68.6199156,63.7472778 C68.6199156,56.9934444 63.1410586,51.4972778 56.4084959,51.4972778 C49.6759331,51.4972778 44.1970761,56.9934444 44.1970761,63.7472778 C44.1970761,66.0053611 42.3775746,67.8306111 40.1266029,67.8306111 C37.8756312,67.8306111 36.0561296,66.0053611 36.0561296,63.7472778 C36.0561296,52.4895278 45.1862011,43.3306111 56.4084959,43.3306111 C67.6307906,43.3306111 76.7608621,52.4895278 76.7608621,63.7472778 C76.7608621,66.0053611 74.9413606,67.8306111 72.6903889,67.8306111 Z" id="Shape" fill="#F29C1F"></path>
            <path d="M141.888434,67.8306111 C139.637462,67.8306111 137.817961,66.0053611 137.817961,63.7472778 C137.817961,56.9934444 132.339104,51.4972778 125.606541,51.4972778 C118.873978,51.4972778 113.395121,56.9934444 113.395121,63.7472778 C113.395121,66.0053611 111.57562,67.8306111 109.324648,67.8306111 C107.073676,67.8306111 105.254175,66.0053611 105.254175,63.7472778 C105.254175,52.4895278 114.384246,43.3306111 125.606541,43.3306111 C136.828836,43.3306111 145.958907,52.4895278 145.958907,63.7472778 C145.958907,66.0053611 144.139406,67.8306111 141.888434,67.8306111 Z" id="Shape" fill="#F29C1F"></path>
            <path d="M6.94588046,110.779277 L6.94588046,110.779277 C13.7748269,114.974309 22.7849592,112.800838 26.9667788,105.950317 L26.9667788,105.950317 C31.1485984,99.0997955 36.5855464,77.604641 29.7566,73.4096095 L29.7566,73.4096095 C22.9276536,69.214578 6.31394811,83.8446043 2.13212847,90.6951258 L2.13212847,90.6951258 C-2.04969117,97.5456473 0.116934047,106.584246 6.94588046,110.779277 Z" id="Shape" fill="#48A0DC"></path>
            <path d="M155.94588,110.779277 L155.94588,110.779277 C162.774827,114.974309 171.784959,112.800838 175.966779,105.950317 L175.966779,105.950317 C180.148598,99.0997955 185.585546,77.604641 178.7566,73.4096095 L178.7566,73.4096095 C171.927654,69.214578 155.313948,83.8446043 151.132128,90.6951258 L151.132128,90.6951258 C146.950309,97.5456473 149.116934,106.584246 155.94588,110.779277 Z" id="Shape" fill="#48A0DC" transform="translate(165.500789, 92.791527) scale(-1, 1) translate(-165.500789, -92.791527) "></path>
        </g>
    </g>
</svg>

<?xml version="1.0" encoding="UTF-8"?>
<svg version="1.1" viewBox="0 0 182 170" xmlns="http://www.w3.org/2000/svg">
<title>Crying</title>
<desc>Created with Sketch.</desc>
<g fill="none" fill-rule="evenodd">
<g fill-rule="nonzero">
<circle cx="91" cy="85" r="85" fill="#F8E71C"/>
<path d="m46.916 133.16c0-24.806 20.047-44.917 44.775-44.917s44.775 20.11 44.775 44.917h-89.55z" fill="#C03A2B"/>
<path d="m46.916 133.16c0-11.274 20.047-20.417 44.775-20.417s44.775 9.1426 44.775 20.417" fill="#E64C3C"/>
<path d="m72.69 67.831c-2.251 0-4.0705-1.8252-4.0705-4.0833 0-6.7538-5.4789-12.25-12.211-12.25-6.7326 0-12.211 5.4962-12.211 12.25 0 2.2581-1.8195 4.0833-4.0705 4.0833s-4.0705-1.8252-4.0705-4.0833c0-11.258 9.1301-20.417 20.352-20.417 11.222 0 20.352 9.1589 20.352 20.417 0 2.2581-1.8195 4.0833-4.0705 4.0833z" fill="#F29C1F"/>
<path d="m141.89 67.831c-2.251 0-4.0705-1.8252-4.0705-4.0833 0-6.7538-5.4789-12.25-12.211-12.25s-12.211 5.4962-12.211 12.25c0 2.2581-1.8195 4.0833-4.0705 4.0833s-4.0705-1.8252-4.0705-4.0833c0-11.258 9.1301-20.417 20.352-20.417s20.352 9.1589 20.352 20.417c0 2.2581-1.8195 4.0833-4.0705 4.0833z" fill="#F29C1F"/>
<path d="m6.9459 110.78c6.8289 4.195 15.839 2.0216 20.021-4.829 4.1818-6.8505 9.6188-28.346 2.7898-32.541s-23.443 10.435-27.624 17.286-2.0152 15.889 4.8138 20.084z" fill="#48A0DC"/>
<path transform="translate(165.5 92.792) scale(-1 1) translate(-165.5 -92.792)" d="m155.95 110.78c6.8289 4.195 15.839 2.0216 20.021-4.829 4.1818-6.8505 9.6188-28.346 2.7898-32.541s-23.443 10.435-27.624 17.286c-4.1818 6.8505-2.0152 15.889 4.8138 20.084z" fill="#48A0DC"/>
</g>
</g>
</svg>
